lib/functional/design/align-left.svg

<svg xmlns="http://www.w3.org/2000/svg" fill="none" stroke="currentColor" aria-hidden="true" viewBox="0 0 32 32"><g id="Icon-AlignLeft"><g clip-path="url(#clip0_8_1775)"><g id="size=md (32px)"><g id="AlignLeft"><path id="Vector" stroke-linecap="round" stroke-linejoin="round" stroke-width="2" d="M5 5V27"/><path id="Vector_2" stroke-linecap="round" stroke-linejoin="round" stroke-width="2" d="M22 7H10C9.44772 7 9 7.44772 9 8V13C9 13.5523 9.44772 14 10 14H22C22.5523 14 23 13.5523 23 13V8C23 7.44772 22.5523 7 22 7Z"/><path id="Vector_3" stroke-linecap="round" stroke-linejoin="round" stroke-width="2" d="M27 18H10C9.44772 18 9 18.4477 9 19V24C9 24.5523 9.44772 25 10 25H27C27.5523 25 28 24.5523 28 24V19C28 18.4477 27.5523 18 27 18Z"/></g></g></g></g><defs><clipPath id="clip0_8_1775"><rect width="32" height="32" fill="white" rx="5"/></clipPath></defs></svg>

<svg xmlns="http://www.w3.org/2000/svg" fill="none" stroke="currentColor" aria-hidden="true" viewBox="0 0 32 32"><path stroke-linecap="round" stroke-linejoin="round" stroke-width="2" d="M5 5v22M22 7H10a1 1 0 0 0-1 1v5a1 1 0 0 0 1 1h12a1 1 0 0 0 1-1V8a1 1 0 0 0-1-1Zm5 11H10a1 1 0 0 0-1 1v5a1 1 0 0 0 1 1h17a1 1 0 0 0 1-1v-5a1 1 0 0 0-1-1Z"/></svg>
